X:8
T: Trunch Wassail Song
M:4/4
L:1/4
K:C
 GGFG|EDC2|_B,DCB,|C3z/G/|GGFG|EDCC|_B,DCB,|C3-C/||G/|
 GGAA|(3GAG EE|FFDD|GFE2|GG(3AGF|GGE2|F2G2|AF(3DED|C4||


